html-practice-pages/web-app-images/music-logo.svg

<svg xmlns="http://www.w3.org/2000/svg" viewBox="0 0 640 640"><!--!Font Awesome Free 7.2.0 by @fontawesome - https://fontawesome.com License - https://fontawesome.com/license/free Copyright 2026 Fonticons, Inc.--><path d="M320 112c114.9 0 208 93.1 208 208s-93.1 208-208 208-208-93.1-208-208 93.1-208 208-208zm0 464c141.4 0 256-114.6 256-256S461.4 64 320 64 64 178.6 64 320s114.6 256 256 256zm-43.5-364.5c-7.4-4.5-16.7-4.7-24.3-.5-7.6 4.2-12.2 12.3-12.2 21v176c0 8.7 4.7 16.7 12.3 20.9 7.6 4.2 16.8 4.1 24.3-.5l144-88c7.1-4.4 11.5-12.1 11.5-20.5s-4.4-16.1-11.5-20.5l-144-88zM362 320l-74 45.2v-90.4l74 45.2z"/></svg>

<svg xmlns="http://www.w3.org/2000/svg" viewBox="0 0 640 640"><!--!Font Awesome Free 7.2.0 by @fontawesome - https://fontawesome.com License - https://fontawesome.com/license/free Copyright 2026 Fonticons, Inc.--><path d="M320 112C434.9 112 528 205.1 528 320C528 434.9 434.9 528 320 528C205.1 528 112 434.9 112 320C112 205.1 205.1 112 320 112zM320 576C461.4 576 576 461.4 576 320C576 178.6 461.4 64 320 64C178.6 64 64 178.6 64 320C64 461.4 178.6 576 320 576zM276.5 211.5C269.1 207 259.8 206.8 252.2 211C244.6 215.2 240 223.3 240 232L240 408C240 416.7 244.7 424.7 252.3 428.9C259.9 433.1 269.1 433 276.6 428.4L420.6 340.4C427.7 336 432.1 328.3 432.1 319.9C432.1 311.5 427.7 303.8 420.6 299.4L276.6 211.4zM362 320L288 365.2L288 274.8L362 320z"/></svg>
